public/assets/img/precast-concrete/building-systems/bsys3.svg

<svg id="ekJcvdI10TP1" xmlns="http://www.w3.org/2000/svg" xmlns:xlink="http://www.w3.org/1999/xlink" viewBox="0 0 54 52" shape-rendering="geometricPrecision" text-rendering="geometricPrecision" project-id="51c4fcd44e564ee68c3bc7845c48f4f5" export-id="a88c7c887712448881e1851b7bdb21a1" cached="false">
<style><![CDATA[
#ekJcvdI10TP2 {animation: ekJcvdI10TP2_s_do 9677.41935483871ms linear infinite normal forwards}@keyframes ekJcvdI10TP2_s_do { 0% {stroke-dashoffset: 307.35} 73.333333% {stroke-dashoffset: 0} 100% {stroke-dashoffset: 0}}
]]></style>
<path id="ekJcvdI10TP2" d="M1.8599,50.9418c-.11658-.0004-.23188-.0243-.33893-.0704s-.20364-.1133-.28392-.1978-.14258-.1842-.18315-.2933-.058556-.2254-.05288-.3416L3.2981,1.81903c.01086-.22158.10694-.43042.2682-.583s.37526-.237129.59741-.23602h6.40279c.221.00062.4333.08594.5932.23834.1598.15241.2549.36027.2657.58068l1.29,27.82817l20.8539-8.2877c.1309-.0526.2728-.0722.4132-.0573s.2749.0642.3918.1432.2126.1856.2786.3102c.0661.1245.1005.2634.1003.4044v6.9407l16.9754-7.4435c.1313-.058.2751-.0823.4182-.0707.1432.0116.2812.0587.4014.1371.1203.0783.2191.1854.2874.3116s.104.2673.1038.4107v9.9796v17.6502c.0007.1139-.0213.2268-.0646.3322s-.1072.2011-.1879.2817-.1766.1443-.2821.1876-.2186.0652-.3327.0646h-.8588-5.9061m-43.4473,0h10.9414h24.2574h7.3897.8588m-43.4473,0h9.7431h2.0775h6.46v-12.9934c.0009-.2272.0917-.4448.2525-.6055s.3788-.2513.6064-.2522h7.3896c.2287-.0008.4484.089.6107.2499.1623.1608.2541.3795.255.6078v12.9121m6.9383,0v-12.9121c.0009-.2283.0927-.447.255-.6078.1623-.1609.382-.2507.6106-.2499h7.3897c.2276.0009.4455.0916.6064.2522s.2516.3783.2525.6055v11.2695v1.7239" fill="none" stroke="#e11f27" stroke-width="2" stroke-dashoffset="307.35" stroke-dasharray="307.35"/></svg>

<svg width="54" height="52" viewBox="0 0 54 52" fill="none" xmlns="http://www.w3.org/2000/svg">
<path d="M1.8599 50.9418C1.74332 50.9414 1.62802 50.9175 1.52097 50.8714C1.41392 50.8253 1.31733 50.7581 1.23705 50.6736C1.15677 50.5892 1.09447 50.4894 1.0539 50.3803C1.01333 50.2712 0.995344 50.1549 1.00102 50.0387L3.2981 1.81903C3.30896 1.59745 3.40504 1.38861 3.5663 1.23603C3.72756 1.08345 3.94156 0.998901 4.16371 1.00001H10.5665C10.7875 1.00063 10.9998 1.08595 11.1597 1.23835C11.3195 1.39076 11.4146 1.59862 11.4254 1.81903L12.7154 29.6472L33.5693 21.3595C33.7002 21.3069 33.8421 21.2873 33.9825 21.3022C34.1229 21.3172 34.2574 21.3664 34.3743 21.4454C34.4912 21.5245 34.5869 21.631 34.6529 21.7556C34.719 21.8801 34.7534 22.019 34.7532 22.16V29.1007L51.7286 21.6572C51.8599 21.5992 52.0037 21.5749 52.1468 21.5865C52.29 21.5981 52.428 21.6452 52.5482 21.7236C52.6685 21.8019 52.7673 21.909 52.8356 22.0352C52.9039 22.1613 52.9396 22.3025 52.9394 22.4459V32.4255V50.0757C52.9401 50.1896 52.9181 50.3025 52.8748 50.4079C52.8314 50.5133 52.7676 50.609 52.6869 50.6896C52.6062 50.7701 52.5103 50.8339 52.4048 50.8772C52.2993 50.9205 52.1862 50.9424 52.0721 50.9418H51.2133H45.3072M1.8599 50.9418H12.8013H37.0587H44.4484H45.3072M1.8599 50.9418H11.603H13.6805H20.1405V37.9484C20.1414 37.7212 20.2322 37.5036 20.393 37.3429C20.5539 37.1823 20.7718 37.0916 20.9994 37.0907H28.389C28.6177 37.0899 28.8374 37.1797 28.9997 37.3406C29.162 37.5014 29.2538 37.7201 29.2547 37.9484V50.8605M36.193 50.8605V37.9484C36.1939 37.7201 36.2857 37.5014 36.448 37.3406C36.6103 37.1797 36.83 37.0899 37.0586 37.0907H44.4483C44.6759 37.0916 44.8938 37.1823 45.0547 37.3429C45.2155 37.5036 45.3063 37.7212 45.3072 37.9484V49.2179V50.9418" stroke="#E11F27" stroke-width="2"/>
</svg>
